X: 1
T: Titting The Scales
C: Fionn McArthur
R: Polka
M: 2/4
L: 1/8
K: Dmix
|: F3/2A/ DA | FA c3/2B/ | Ad d3/2e/ | fd cA |
F3/2A/ DA | FA c3/2B/ | Ad A/B/A/G/ | FD D2 :|
|: f3/2d/ Ad | ff g2 | fd Ad | cd Bd |
f3/2d/ Ad | ff g2 | fd A/B/A/G/ | FD D2:|
